X:0104
T:The Nut
P:The Nut
C:Traditional
R:Jig (8x24) ABA
B:RSCDS 1-4
Z:Anselm Lingnau <anselm@strathspey.org>
M:6/8
L:1/8
K:Bb
F|S"Bb"B>cB Bed|dcB B2g|"Eb"gfe "Bb"dcB|"C7"dcc "F7"[c2A2F2] F|
   "Bb"B>cB Bed|dgf fba|"Eb"g2B "F7"ABc|"Bb"cBB B2"Fine"||
A/B/|"F"c>dc caf|"C7"=ecd "F"c2c|cdc cAF|"C7"AGG GAB|
   "F"c>dc caf|"C7"=ecd "F"c2c|"Gm"d=ef "C7"[gB]fe|"F"[fA]gf "F7"_edc"D.S."||

